vendor/shopware/storefront/Resources/app/storefront/dist/assets/icon/default/arrow-left.svg

<svg xmlns="http://www.w3.org/2000/svg" width="24" height="24" viewBox="0 0 24 24">
  <path fill="#758CA3" fill-rule="evenodd" d="M3.41421356,13 L7.70710678,17.2928932 C8.09763107,17.6834175 8.09763107,18.3165825 7.70710678,18.7071068 C7.31658249,19.0976311 6.68341751,19.0976311 6.29289322,18.7071068 L0.292893219,12.7071068 C-0.0976310729,12.3165825 -0.0976310729,11.6834175 0.292893219,11.2928932 L6.29289322,5.29289322 C6.68341751,4.90236893 7.31658249,4.90236893 7.70710678,5.29289322 C8.09763107,5.68341751 8.09763107,6.31658249 7.70710678,6.70710678 L3.41421356,11 L23,11 C23.5522847,11 24,11.4477153 24,12 C24,12.5522847 23.5522847,13 23,13 L3.41421356,13 Z"/>
</svg>

<svg xmlns="http://www.w3.org/2000/svg" width="24" height="24" viewBox="0 0 24 24"><path fill="#758CA3" fill-rule="evenodd" d="m3.4142 13 4.293 4.2929c.3904.3905.3904 1.0237 0 1.4142-.3906.3905-1.0238.3905-1.4143 0l-6-6c-.3905-.3905-.3905-1.0237 0-1.4142l6-6c.3905-.3905 1.0237-.3905 1.4142 0 .3905.3905.3905 1.0237 0 1.4142L3.4142 11H23c.5523 0 1 .4477 1 1s-.4477 1-1 1H3.4142z"/></svg>
